src/icons/svgs/16/file-alt.svg

<svg width="16" height="16" viewBox="0 0 16 16" fill="none" xmlns="http://www.w3.org/2000/svg">
<path d="M9.66667 1V4.5H13L9.66667 1ZM8.83333 4.5V1H4.25C3.55964 1 3 1.58762 3 2.3125V13.6875C3 14.4121 3.55964 15 4.25 15H11.75C12.4404 15 13 14.4124 13 13.6875V5.375H9.6901C9.20573 5.375 8.83333 4.98398 8.83333 4.5ZM10.0833 12.375H5.91667C5.6875 12.375 5.5 12.1781 5.5 11.9375C5.5 11.6969 5.6875 11.5 5.91667 11.5H10.0833C10.3134 11.5 10.5 11.6958 10.5 11.9375C10.5 12.1781 10.3125 12.375 10.0833 12.375ZM10.0833 10.625H5.91667C5.6875 10.625 5.5 10.4281 5.5 10.1875C5.5 9.94687 5.6875 9.75 5.91667 9.75H10.0833C10.3134 9.75 10.5 9.94584 10.5 10.1875C10.5 10.4281 10.3125 10.625 10.0833 10.625ZM10.5 8.4375C10.5 8.67812 10.3125 8.875 10.0833 8.875H5.91667C5.6875 8.875 5.5 8.67812 5.5 8.4375C5.5 8.19688 5.6875 8 5.91667 8H10.0833C10.3125 8 10.5 8.19688 10.5 8.4375Z" fill="black"/>
</svg>

<svg width="16" height="16" viewBox="0 0 16 16" xmlns="http://www.w3.org/2000/svg">
    <path d="M9.667 1v3.5H13L9.667 1Zm-.834 3.5V1H4.25C3.56 1 3 1.588 3 2.313v11.374C3 14.412 3.56 15 4.25 15h7.5c.69 0 1.25-.588 1.25-1.313V5.376H9.69a.858.858 0 0 1-.857-.875Zm1.25 7.875H5.917a.429.429 0 0 1-.417-.438.43.43 0 0 1 .417-.437h4.166c.23 0 .417.196.417.438a.43.43 0 0 1-.417.437Zm0-1.75H5.917a.429.429 0 0 1-.417-.438.43.43 0 0 1 .417-.437h4.166c.23 0 .417.196.417.438a.43.43 0 0 1-.417.437Zm.417-2.188a.43.43 0 0 1-.417.438H5.917a.429.429 0 0 1-.417-.438A.43.43 0 0 1 5.917 8h4.166c.23 0 .417.197.417.438Z"/>
</svg>
